!!!COM: Bach, Johann Sebastian
!!!CDT: 1685/3//-1750/7/28/
!!!OTL@@DE: O Haupt voll Blut und Wunden
!!!AGN: 4-Part Chorale
!!!SCT: BH 098
!!!SCT: BWV 244
**harm	**root	**kern	**kern	**kern	**kern
!	!	!bass	!tenor	!alto	!soprno
*	*Iorgan	*Iorgan	*Iorgan	*Iorgan	*Iorgan
*	*	*clefF4	*clefF4	*clefG2	*clefG2
*M4/4	*M4/4	*M4/4	*M4/4	*M4/4	*M4/4
*met(c)	*met(c)	*met(c)	*met(c)	*met(c)	*met(c)
*MM60	*MM60	*MM60	*MM60	*MM60	*MM60
*k[f#c#]	*k[f#c#]	*k[f#c#]	*k[f#c#]	*k[f#c#]	*k[f#c#]
*D:	*D:	*D:	*D:	*D:	*D:
*>[A,A,B]	*>[A,A,B]	*>[A,A,B]	*>[A,A,B]	*>[A,A,B]	*>[A,A,B]
*>A	*>A	*>A	*>A	*>A	*>A
I	4DD	4D	4A	4d	4f#
=1	=1	=1	=1	=1	=1
IV	4GG	4G	4G	4d	4b
Ib	4DD	4F#	4A	4d	4a
IVb	8GG	8BB	8B	8d	4g
V7b	8AA	8C#	8A	8e	.
I	4DD	4D	4A	8e	4f#
.	.	.	.	8d	.
=2	=2	=2	=2	=2	=2
ii7b	4EE	4GG	4B	4d	2e
V	4AA	4AA	4A	4c#	.
I;	4DD;	4D;	4A;	4d;	4f#;
viib/vi	4AA#	4C#	4A#	4e	4cc#
=3	=3	=3	=3	=3	=3
vi	4BB	8BB	4F#	8d	4dd
.	.	8C#	.	8e	.
vib	4BB	8D	4B	4f#	4dd
.	.	8E	.	.	.
V/vi	4FF#	4F#	4B	4f#	8cc#
.	.	.	.	.	8b
V/vi	4FF#	4FF#	4A#	8f#	4cc#
.	.	.	.	8e	.
=4	=4	=4	=4	=4	=4
vi;	2.BB;	2.BB;	2.B;	2.d;	2.b;
=:|!	=:|!	=:|!	=:|!	=:|!	=:|!
*>B	*>B	*>B	*>B	*>B	*>B
vi	4BB	4B	4f#	8b	4dd
.	.	.	.	8an	.
=5	=5	=5	=5	=5	=5
viib	4CC#	4E	8e	4g	8cc#
.	.	.	8d	.	8b
iii	4FF#	4F#	4c#	8f#	4a
.	.	.	.	8e	.
IV	4GG	8G	8B	4d	4b
.	.	8F#	8A	.	.
viib	4CC#	4E	8G	4g	4cc#
.	.	.	8A	.	.
!!linebreak: 2
=6	=6	=6	=6	=6	=6
IVc	4GG	2D	4B	4g	2dd
I	4DD	.	8A	8f#	.
.	.	.	8G	8e	.
I;	4DD;	4D;	4A;	4f#;	4dd;
I	4DD	4D	4d	4f#	4a
=7	=7	=7	=7	=7	=7
IV	4GG	4G	4d	4g	4b
I	4DD	4D	8d	4f#	4a
.	.	.	8c#	.	.
ii	4EE	8E	4B	4f#	4g
.	.	8F#	.	.	.
iib	4EE	8G	4B	4e	4g
.	.	8A	.	.	.
=8	=8	=8	=8	=8	=8
VI;	2.BB;	2.B;	2.B;	2.d#;	2.f#;
V7b/V	4EE	4G#	4B	4e	4ddn
=9	=9	=9	=9	=9	=9
V	4AA	4A	4A	4e	8cc#
.	.	.	.	.	8dd
Vb	4AA	4C#	8A	4e	4ee
.	.	.	8G#	.	.
Ib	4DD	8F#	8A	4f#	4dd
.	.	8G#	8B	.	.
V	4AA	4A	8c#	4e	4cc#
.	.	.	8A	.	.
=10	=10	=10	=10	=10	=10
vib	4BB	4D	8F#	4f#	2b
.	.	.	8B	.	.
V/V	4EE	4E	4G#	4e	.
V;	4AA;	4AA;	4A;	4e;	4cc#;
I	4DD	8D	4A	4d	4f#
.	.	8C#	.	.	.
=11	=11	=11	=11	=11	=11
IVb	4GG	4BB	4G	8d	4g
.	.	.	.	8c#	.
Ic	4DD	4AA	4A	4d	4f#
ii7b	4EE	4GG	4B	4d	4e
V	4AA	4AA	8E	4c#	4a
.	.	.	8A	.	.
=12	=12	=12	=12	=12	=12
I;	2.DD;	2.D;	2.A;	2.d;	2.f#;
==	==	==	==	==	==
*-	*-	*-	*-	*-	*-
!!chor2scor: -l 2 -s 0.6 -o %b.pmx
!!!YEC: Copyright 1994, David Huron
!!!YEC: Changes/Additions 2001 by Craig Stuart Sapp
!!!YEN: United States of America
!!!SMA: 371 Bach Chorales, edited by Ludwig Erk, C.F. Peters
!!!PDT: 1850, 1865
!!!ONB: Harmony and Root analysis done manually by Craig Sapp
